!!!!SEGMENT: pl-kk--kk-i-7--051-004_palestrina-giovanni-pierluigi-da--missa-de-b-virgine-maria-agnus-dei.krn
!!!cenid: 16xx:870
!!!COM: Palestrina, Giovanni Pierluigi da
!!!COM-rismid: pe1904
!!!CDT: ~1525-1594/02/02
!!!CNT: Italian
!!!OPR: Missa de B Virgine Maria
!!!OTL: Agnus Dei
!!!OMV: 004
!!!PDT:
!!!AGN: Sacred; Mass
!!!SMS-siglum: PL-Kk
!!!SMS-shelfmark: Kk.I.7
!!!SMS-shelfwork: 051-004 M
!!!SMS-variant:
!!!SMS-altvar:
!!!NIFC-rismid: 300258128
!!!URL-scan: http://repozytorium.nifc.pl/skany/pl-kk-nut--i-7
!!!ONB-nifc: UWAGA: C (skan 0047-0049, s.88-90), A (0131-0132, s.82-85), T(0207-0209, s.77-80), B(0296-0297, s.78-80). Części Mszy: 1. Kyrie, 2. Et in terra, 3. Sanctus, 4. Agnus Dei. "Benedictus" partii S znajduje się na luźnej kartce włożonej między strony 88-89. "Agnus II" rozpisane na 5 głosów. Dodatkowy głos zapisany w księdze A na stronie 85
!!!AIN: 2 alto 1 bass 1 tenor 1 vox
!!!key:
**kern	**text	**kern	**text	**kern	**text	**kern	**text	**kern	**text
*part5	*part5	*part4	*part4	*part3	*part3	*part2	*part2	*part1	*part1
*staff5	*staff5	*staff4	*staff4	*staff3	*staff3	*staff2	*staff2	*staff1	*staff1
*Ibass	*	*Itenor	*	*Ialto	*	*Ialto	*	*Ivox	*
*I"I"BASSVS.	*	*I"TENOR.	*	*I"ALTVS. [2]	*	*I"ALTVS. [1]	*	*I"CANTVS.	*
*I'B	*	*I'T	*	*I'A 2	*	*I'A 1	*	*I'S	*
*clefF3	*	*clefC3	*	*clefC3	*	*clefC2	*	*clefG2	*
*k[b-]	*	*k[b-]	*	*k[b-]	*	*k[b-]	*	*k[b-]	*
*F:	*	*F:	*	*F:	*	*F:	*	*F:	*
*M2/1	*	*M2/1	*	*M2/1	*	*M2/1	*	*M2/1	*
*met(C|)	*	*met(C|)	*	*met(C|)	*	*met(C|)	*	*met(C|)	*
=1-	=1-	=1-	=1-	=1-	=1-	=1-	=1-	=1-	=1-
!	!	!	!	!	!	!LO:TX:a:t=P:problem=w źródle znaki przykluczowe b- B-, zapisane jeden pod drugim, w pionie	!	!	!
!LO:TX:a:t=P:problem=w źródle znaki przykluczowe B- BB-, zapisane jeden pod drugim, w pionie	!	!	!	!	!	!	!	!	!
!	!	!LO:TX:t=P:problem=kreska pseudotaktowa	!	!	!	!	!	!	!
00r	.	00r	.	0ryy	.	0g	A-	00r	.
=2-	=2-	=2-	=2-	=2-	=2-	=2-	=2-	=2-	=2-
.	.	.	.	0ryy	.	2.e/	-gnus	.	.
.	.	.	.	.	.	8d/L	.	.	.
.	.	.	.	.	.	8c/J	.	.	.
!	!	!	!	!	!	!LO:TX:t=P:problem=kreska pseudotaktowa	!	!	!
.	.	.	.	.	.	1d	De-	.	.
=3-	=3-	=3-	=3-	=3-	=3-	=3-	=3-	=3-	=3-
!	!	!	!	!	!	!	!	!LO:TX:t=P:problem=kreska pseudotaktowa	!
00r	.	0c	A-	0ryy	.	2.c/	-i	00r	.
.	.	.	.	.	.	4d/	A-	.	.
.	.	.	.	.	.	4e\	.	.	.
.	.	.	.	.	.	4f\	.	.	.
!	!	!	!	!	!	!LO:TX:t=P:problem=2\right&colon; global	!	!	!
.	.	.	.	.	.	2g\	.	.	.
=4-	=4-	=4-	=4-	=4-	=4-	=4-	=4-	=4-	=4-
.	.	2.A/	-gnus	0ryy	.	2c/	.	.	.
.	.	.	.	.	.	1f	.	.	.
.	.	8G/L	.	.	.	.	.	.	.
.	.	8F/J	.	.	.	.	.	.	.
.	.	1G	.	.	.	.	.	.	.
*	*	*	*	*	*	*2\right	*	*	*
!	!	!	!	!	!	!LO:TX:t=P:problem=kreska pseudotaktowa	!	!	!
.	.	.	.	.	.	2e\	.	.	.
=5-	=5-	=5-	=5-	=5-	=5-	=5-	=5-	=5-	=5-
00r	.	2.F/	De-	0ryy	.	2.a\	.	0cc	A-
.	.	4G/	.	.	.	4g\	.	.	.
.	.	4A/	.	.	.	2f\	-gnus	.	.
.	.	4B-/	.	.	.	.	.	.	.
*	*	*2\right	*	*	*	*	*	*	*
.	.	2c\	.	.	.	2e\	.	.	.
=6-	=6-	=6-	=6-	=6-	=6-	=6-	=6-	=6-	=6-
.	.	2F,/	-i	0ryy	.	1f	De-	2.a/	-gnus
*	*	*	*ij	*	*	*	*	*	*
.	.	1f	A-	.	.	.	.	.	.
.	.	.	.	.	.	.	.	8g/L	.
!	!	!	!	!	!	!	!	!LO:TX:t=P:problem=kreska pseudotaktowa	!
.	.	.	.	.	.	.	.	8f/J	.
!	!	!	!	!	!	!LO:TX:t=P:problem=kreska pseudotaktowa	!	!	!
.	.	.	.	.	.	1c	-i	1g	De-
!	!	!LO:TX:t=P:problem=kreska pseudotaktowa	!	!	!	!	!	!	!
.	.	2e\	.	.	.	.	.	.	.
=7-	=7-	=7-	=7-	=7-	=7-	=7-	=7-	=7-	=7-
!LO:TX:t=P:problem=kreska pseudotaktowa	!	!	!	!	!	!	!	!	!
00r	.	1.d	-gnus	0ryy	.	2rc	.	2.f/	.
*	*	*	*	*	*	*	*ij	*	*
.	.	.	.	.	.	4d/	A-	.	.
!	!	!	!	!	!	!	!	!LO:TX:t=P:problem=kreska pseudotaktowa	!
.	.	.	.	.	.	4e/	.	4g/	.
.	.	.	.	.	.	4f\	.	4a/	.
.	.	.	.	.	.	4g\	.	4b-/	.
*	*	*	*	*	*	*	*	*2\right	*
!	!	!	!	!	!	!	!	!LO:TX:t=P:problem=kreska pseudotaktowa	!
.	.	2A/	.	.	.	1a\	-gnus	2cc\	.
=8-	=8-	=8-	=8-	=8-	=8-	=8-	=8-	=8-	=8-
.	.	1d	De-	0ryy	.	.	.	2f/	.
.	.	.	.	.	.	2f\	.	1ff	.
!	!	!LO:TX:t=P:problem=kreska pseudotaktowa	!	!	!	!	!	!	!
.	.	1c	-i	.	.	1g	De-	.	.
*	*	*	*Xij	*	*	*	*	*	*
.	.	.	.	.	.	.	.	4ee\	.
.	.	.	.	.	.	.	.	4dd\	.
=9-	=9-	=9-	=9-	=9-	=9-	=9-	=9-	=9-	=9-
!	!	!	!	!	!	!LO:TX:t=P:problem=kreska pseudotaktowa	!	!LO:TX:t=P:problem=kreska pseudotaktowa	!
0c	A-	2r	.	0ryy	.	1g	-i	0ee	-i,
*	*	*	*	*	*	*	*Xij	*	*
.	.	4c\	A-	.	.	.	.	.	.
.	.	4d\	.	.	.	.	.	.	.
.	.	4e\	.	.	.	2rg	.	.	.
.	.	4f\	.	.	.	.	.	.	.
.	.	2g\	.	.	.	1cc\	A-	.	.
=10-	=10-	=10-	=10-	=10-	=10-	=10-	=10-	=10-	=10-
*2\right	*	*	*	*	*	*	*	*	*
2.A\	-gnus	2c\	-gnus	0ryy	.	.	.	0r	.
.	.	1f	De-	.	.	2a\	-gnus	.	.
8G\L	.	.	.	.	.	.	.	.	.
!LO:TX:t=P:problem=kreska pseudotaktowa	!	!	!	!	!	!	!	!	!
8F\J	.	.	.	.	.	.	.	.	.
1G	.	.	.	.	.	2.b-\	.	.	.
.	.	2e\	.	.	.	.	.	.	.
!	!	!	!	!	!	!LO:TX:t=P:problem=kreska pseudotaktowa	!	!	!
.	.	.	.	.	.	4g\	De-	.	.
=11-	=11-	=11-	=11-	=11-	=11-	=11-	=11-	=11-	=11-
2.F\	De-	1f	.	0ryy	.	4a\	.	0cc	A-
.	.	.	.	.	.	4b-\	.	.	.
.	.	.	.	.	.	1a	.	.	.
4G\	.	.	.	.	.	.	.	.	.
!	!	!LO:TX:t=P:problem=kreska pseudotaktowa	!	!	!	!	!	!	!
4A\	.	1c	-i	.	.	.	.	.	.
4B-\	.	.	.	.	.	.	.	.	.
!	!	!	!	!	!	!LO:TX:t=P:problem=kreska pseudotaktowa	!	!	!
2c\	.	.	.	.	.	[<2g\	.	.	.
=12-	=12-	=12-	=12-	=12-	=12-	=12-	=12-	=12-	=12-
!LO:TX:t=P:problem=kreska pseudotaktowa	!	!LO:TX:t=P:problem=kreska pseudotaktowa	!	!	!	!	!	!	!
!	!	!	!	!	!	!LO:N:xstem:cue	!	!	!
1F	-i,	0r	.	0ryy	.	4g]	.	2.a/	-gnus
.	.	.	.	.	.	4f\	.	.	.
.	.	.	.	.	.	1f	.	.	.
.	.	.	.	.	.	.	.	8g/L	.
!	!	!	!	!	!	!	!	!LO:TX:t=P:problem=kreska pseudotaktowa	!
.	.	.	.	.	.	.	.	8f/J	.
*	*ij	*	*	*	*	*	*	*	*
2.c\	A-	.	.	.	.	.	.	2g/	De-
.	.	.	.	.	.	4e/	.	2.cc\	.
4B-\	.	.	.	.	.	4d/	.	.	.
=13-	=13-	=13-	=13-	=13-	=13-	=13-	=13-	=13-	=13-
*	*	*	*ij	*	*	*	*	*	*
4A\	.	0c	A-	0ryy	.	2e\	.	.	.
4G\	.	.	.	.	.	.	.	4b-/	.
1F	-gnus	.	.	.	.	1f	.	4a/	.
!	!	!	!	!	!	!	!	!LO:TX:t=P:problem=kreska pseudotaktowa	!
.	.	.	.	.	.	.	.	4g/	.
.	.	.	.	.	.	.	.	2a/	.
2E/	.	.	.	.	.	2g\	.	2.g/	.
=14-	=14-	=14-	=14-	=14-	=14-	=14-	=14-	=14-	=14-
*lig	*	*	*	*	*	*	*	*	*
!	!	!	!	!	!	!LO:TX:t=P:problem=kreska pseudotaktowa	!	!	!
1F	De-	1A	-gnus	0ryy	.	0.c	-i,	.	.
.	.	.	.	.	.	.	.	4f/	.
.	.	.	.	.	.	.	.	1f	.
1C	.	1G	De-	.	.	.	.	.	.
!	!	!	!	!	!	!	!	!LO:TX:t=P:problem=kreska pseudotaktowa	!
.	.	.	.	.	.	.	.	2e/	.
*Xlig	*	*	*	*	*	*	*	*	*
=15-	=15-	=15-	=15-	=15-	=15-	=15-	=15-	=15-	=15-
!LO:TX:t=P:problem=kreska pseudotaktowa	!	!LO:TX:t=P:problem=kreska pseudotaktowa	!	!	!	!	!	!	!
1F	-i,	1F	-i	0ryy	.	.	.	2.f/	.
*	*Xij	*	*Xij	*	*	*	*	*	*
.	.	.	.	.	.	.	.	4g/	.
!	!	!	!	!	!	!LO:LB:g=original	!	!	!
*	*	*lig	*	*	*	*	*	*	*
!LO:TX:t=P:problem=kreska pseudotaktowa	!	!	!	!	!	!	!	!	!
1r	.	1F	qui	.	.	2r	.	4a/	.
.	.	.	.	.	.	.	.	4g/	.
.	.	.	.	.	.	1f\	qui	4a/	.
.	.	.	.	.	.	.	.	4b-/	.
=16-	=16-	=16-	=16-	=16-	=16-	=16-	=16-	=16-	=16-
!	!	!	!	!	!	!	!	!LO:TX:t=P:problem=kreska pseudotaktowa	!
1.F	Qui	1A	.	0ryy	.	.	.	1cc	-i,
.	.	.	.	.	.	1a	tol-	.	.
*	*	*Xlig	*	*	*	*	*	*	*
.	.	0c	tol-	.	.	.	.	0r	.
4E/	.	.	.	.	.	4g\	.	.	.
!	!	!	!	!	!	!LO:TX:t=P:problem=kreska pseudotaktowa	!	!	!
4D/	.	.	.	.	.	4f\	.	.	.
=17-	=17-	=17-	=17-	=17-	=17-	=17-	=17-	=17-	=17-
2E/	.	.	.	0ryy	.	2g\	.	.	.
!LO:TX:t=P:problem=kreska pseudotaktowa	!	!	!	!	!	!	!	!	!
2F/	.	.	.	.	.	2.a\	.	.	.
*	*	*custos:c	*	*	*	*	*	*	*
2.D/	tol-	0d	.	.	.	.	.	1r	.
.	.	.	.	.	.	4g\	.	.	.
.	.	.	.	.	.	4f\	.	.	.
4C/	.	.	.	.	.	4e\	.	.	.
=18-	=18-	=18-	=18-	=18-	=18-	=18-	=18-	=18-	=18-
*	*	*	*	*	*	*	*	*lig	*
1BB-	.	.	.	0ryy	.	4d/	.	1f	Qui
.	.	.	.	.	.	4c/	.	.	.
.	.	.	.	.	.	2B-/	.	.	.
!	!	!LO:LB:g=original	!	!	!	!	!	!	!
!LO:TX:t=P:problem=kreska pseudotaktowa	!	!	!	!	!	!	!	!	!
1F	-lis.	2c\	.	.	.	2A/	-lis	1a	.
.	.	1f\	.	.	.	1a\	pec-	.	.
*	*	*	*	*	*	*	*	*Xlig	*
=19-	=19-	=19-	=19-	=19-	=19-	=19-	=19-	=19-	=19-
!LO:TX:t=P:problem=kreska pseudotaktowa	!	!	!	!	!	!	!	!	!
00r	.	.	.	0ryy	.	.	.	0cc	tol-
.	.	4e\	.	.	.	4g\	.	.	.
!	!	!	!	!	!	!LO:TX:t=P:problem=kreska pseudotaktowa	!	!	!
.	.	4d\	.	.	.	4f\	.	.	.
.	.	2e\	.	.	.	2g\	-ca-	.	.
!	!	!LO:TX:t=P:problem=kreska pseudotaktowa	!	!	!	!	!	!	!
.	.	2f\	.	.	.	2a\	-ta	.	.
=20-	=20-	=20-	=20-	=20-	=20-	=20-	=20-	=20-	=20-
.	.	2.d\	.	0ryy	.	2b-\	mun-	0dd	.
.	.	.	.	.	.	1a	.	.	.
.	.	4c/	.	.	.	.	.	.	.
.	.	1B-	.	.	.	.	.	.	.
.	.	.	.	.	.	2g\	.	.	.
*custos:F	*	*	*	*	*	*	*	*	*
!LO:PB:g=original	!	!	!	!	!	!	!	!LO:LB:g=original	!
=21-	=21-	=21-	=21-	=21-	=21-	=21-	=21-	=21-	=21-
!	!	!	!	!	!	!LO:TX:t=P:problem=kreska pseudotaktowa	!	!LO:TX:t=P:problem=kreska pseudotaktowa	!
1F	pec-	2A/	.	0ryy	.	0a	-di	1cc	-lis
.	.	1f	.	.	.	.	.	.	.
2A\	-ca-	.	.	.	.	.	.	1cc	pec-
2A\	-ta	2e\	.	.	.	.	.	.	.
=22-	=22-	=22-	=22-	=22-	=22-	=22-	=22-	=22-	=22-
!	!	!LO:TX:t=P:problem=kreska pseudotaktowa	!	!	!	!	!	!	!
1B-	pec-	1d	-lis	0ryy	.	2r	.	1dd	-ca-
.	.	.	.	.	.	1g	pec-	.	.
!	!	!	!	!	!	!	!	!LO:TX:t=P:problem=kreska pseudotaktowa	!
4c\	.	2r	.	.	.	.	.	1ee	-ta
4B-\	.	.	.	.	.	.	.	.	.
4A\	-ca-	1c\	pec-	.	.	1a\	-ca-	.	.
4G\	.	.	.	.	.	.	.	.	.
=23-	=23-	=23-	=23-	=23-	=23-	=23-	=23-	=23-	=23-
4F/	.	.	.	0ryy	.	.	.	1.ff	mun-
4E/	.	.	.	.	.	.	.	.	.
4D/	.	1d	-ca-	.	.	2a\	-ta	.	.
4C/	.	.	.	.	.	.	.	.	.
2BB-/	.	.	.	.	.	2b-\	.	.	.
!	!	!	!	!	!	!	!	!LO:TX:t=P:problem=kreska pseudotaktowa	!
2C/	-ta	2e\	-ta	.	.	2g\	.	2ee\	.
=24-	=24-	=24-	=24-	=24-	=24-	=24-	=24-	=24-	=24-
*lig	*	*	*	*	*	*	*	*	*
1F	mun-	2.f\	.	0ryy	.	1a	mun-	2dd\	.
.	.	.	.	.	.	.	.	1cc	.
.	.	4e\	.	.	.	.	.	.	.
!	!	!	!	!	!	!LO:TX:t=P:problem=kreska pseudotaktowa	!	!	!
1G	.	1d	mun-	.	.	1g	-di	.	.
.	.	.	.	.	.	.	.	2b-\	.
*Xlig	*	*	*	*	*	*	*	*	*
=25-	=25-	=25-	=25-	=25-	=25-	=25-	=25-	=25-	=25-
!LO:TX:t=P:problem=kreska pseudotaktowa	!	!LO:TX:t=P:problem=kreska pseudotaktowa	!	!	!	!	!	!LO:TX:t=P:problem=kreska pseudotaktowa	!
1C	-di	0c	-di	0ryy	.	2r	.	0cc	-di
.	.	.	.	.	.	1g	mi-	.	.
1c	mi-	.	.	.	.	.	.	.	.
.	.	.	.	.	.	2e\	-ſe-	.	.
=26-	=26-	=26-	=26-	=26-	=26-	=26-	=26-	=26-	=26-
2A\	-ſe-	00r	.	0ryy	.	1c	-re-	0r	.
1F	-re-	.	.	.	.	.	.	.	.
.	.	.	.	.	.	2d/	-re	.	.
!LO:TX:t=P:problem=kreska pseudotaktowa	!	!	!	!	!	!	!	!	!
2G\	-re	.	.	.	.	2.e\	no-	.	.
=27-	=27-	=27-	=27-	=27-	=27-	=27-	=27-	=27-	=27-
2A\	no-	.	.	0ryy	.	.	.	1cc	mi-
.	.	.	.	.	.	4c/	.	.	.
4F\	.	.	.	.	.	1f	.	.	.
4G\	.	.	.	.	.	.	.	.	.
4A\	.	.	.	.	.	.	.	1a	-ſe-
4B-\	.	.	.	.	.	.	.	.	.
!	!	!	!	!	!	!LO:TX:t=P:problem=kreska pseudotaktowa	!	!	!
4c\	.	.	.	.	.	2e\	.	.	.
4A\	.	.	.	.	.	.	.	.	.
=28-	=28-	=28-	=28-	=28-	=28-	=28-	=28-	=28-	=28-
!	!	!LO:TX:t=P:problem=kreska pseudotaktowa	!	!	!	!	!	!LO:TX:t=P:problem=kreska pseudotaktowa	!
2.B-\	.	0r	.	0ryy	.	2d/	.	1f	-re-
.	.	.	.	.	.	1f	.	.	.
4A\	.	.	.	.	.	.	.	.	.
2B-\	.	.	.	.	.	.	.	1g,	-re
2c\	.	.	.	.	.	2e\	.	.	.
=29-	=29-	=29-	=29-	=29-	=29-	=29-	=29-	=29-	=29-
!LO:TX:t=P:problem=kreska pseudotaktowa	!	!	!	!	!	!	!	!	!
1F	-bis	1f	mi-	0ryy	.	2d/	.	1.a	no-
.	.	.	.	.	.	2c/	.	.	.
0r	.	1d	-ſe-	.	.	1.f	.	.	.
.	.	.	.	.	.	.	.	4g/	.
.	.	.	.	.	.	.	.	4f/	.
=30-	=30-	=30-	=30-	=30-	=30-	=30-	=30-	=30-	=30-
.	.	1B-	-re-	0ryy	.	.	.	0g	.
.	.	.	.	.	.	4e/	.	.	.
.	.	.	.	.	.	4d/	.	.	.
*	*	*	*	*	*	*custos:f	*	*	*
!LO:TX:t=P:problem=kreska pseudotaktowa	!	!LO:TX:t=P:problem=kreska pseudotaktowa	!	!	!	!LO:TX:t=P:problem=kreska pseudotaktowa	!	!	!
1r	.	0c	-re	.	.	1e	.	.	.
!	!	!	!	!	!	!LO:LB:g=original	!	!	!
=31-	=31-	=31-	=31-	=31-	=31-	=31-	=31-	=31-	=31-
*	*ij	*	*	*	*	*	*	*	*
!	!	!	!	!	!	!	!	!LO:TX:t=P:problem=kreska pseudotaktowa	!
1F	mi-	.	.	0ryy	.	2f\	-bis	1f	-bis.
*	*	*	*	*	*	*	*ij	*	*
.	.	.	.	.	.	1a	mi-	.	.
1D	-ſe-	0d	no-	.	.	.	.	2r	.
*	*	*	*	*	*	*	*	*	*ij
.	.	.	.	.	.	2a\	-ſe-	1ff\	mi-
=32-	=32-	=32-	=32-	=32-	=32-	=32-	=32-	=32-	=32-
1BB-	-re-	.	.	0ryy	.	1b-	-re-	.	.
!	!	!	!	!	!	!	!	!LO:TX:t=P:problem=kreska pseudotaktowa	!
.	.	.	.	.	.	.	.	2dd\	-ſe-
!LO:TX:t=P:problem=kreska pseudotaktowa	!	!	!	!	!	!	!	!	!
1C	-re	1.c	.	.	.	2a\	-re	2ee\	-re-
.	.	.	.	.	.	2g\	.	2ee\	-re
=33-	=33-	=33-	=33-	=33-	=33-	=33-	=33-	=33-	=33-
0D	no-	.	.	0ryy	.	1f	no-	0ff	no-
.	.	4B-/	.	.	.	.	.	.	.
.	.	4A/	.	.	.	.	.	.	.
!	!	!	!	!	!	!LO:TX:t=P:problem=kreska pseudotaktowa	!	!	!
.	.	1B-	.	.	.	1d	-bis	.	.
*	*	*	*	*	*	*	*Xij	*	*
=34-	=34-	=34-	=34-	=34-	=34-	=34-	=34-	=34-	=34-
!LO:TX:t=P:problem=kreska pseudotaktowa	!	!LO:TX:t=P:problem=kreska pseudotaktowa	!	!	!	!	!	!LO:TX:t=P:problem=kreska pseudotaktowa	!
0C	-bis	1c	.	0ryy	.	2r	.	1ee	-bis
*	*	*	*	*	*	*	*	*	*Xij
*	*Xij	*	*	*	*	*	*	*	*
.	.	.	.	.	.	1g	mi-	.	.
.	.	1g	.	.	.	.	.	2ree	.
.	.	.	.	.	.	2e\	-ſe-	1gg\	mi-
=35-	=35-	=35-	=35-	=35-	=35-	=35-	=35-	=35-	=35-
1c	mi-	1e	.	0ryy	.	2c/	-re-	.	.
.	.	.	.	.	.	1g	-re	1ee	-se-
1A	.	2c\	.	.	.	.	.	.	.
!	!	!	!	!	!	!LO:N:vis=0.	!	!	!
.	.	2e\	.	.	.	2a	no-	1cc\	-re-
=36-	=36-	=36-	=36-	=36-	=36-	=36-	=36-	=36-	=36-
0F	-ſe-	0f	.	0ryy	.	0ayy	.	.	.
!	!	!	!	!	!	!	!	!LO:TX:t=P:problem=kreska pseudotaktowa	!
.	.	.	.	.	.	.	.	(<2.dd\	-re
.	.	.	.	.	.	.	.	.	.
.	.	.	.	.	.	.	.	4cc\)	.
.	.	.	.	.	.	.	.	1cc\	.
.	.	.	.	.	.	.	.	.	.
=37-	=37-	=37-	=37-	=37-	=37-	=37-	=37-	=37-	=37-
!	!	!	!	!	!	!LO:TX:t=P:problem=kreska pseudotaktowa	!	!	!
1G	-re-	1d	.	0ryy	.	1g	-bis	.	.
!	!	!	!	!	!	!	!	!LO:TX:t=P:problem=kreska pseudotaktowa	!
.	.	.	.	.	.	.	.	2b-\	.
2.A\	-re	0c	.	.	.	2r	.	2.cc\	no-
*	*	*	*	*	*	*	*ij	*	*
.	.	.	.	.	.	2e\	mi-	.	.
4G\	.	.	.	.	.	.	.	4b-/	.
=38-	=38-	=38-	=38-	=38-	=38-	=38-	=38-	=38-	=38-
2F/	no-	.	.	0ryy	.	2f\	-ſe-	2a/	.
!	!	!	!	!	!	!	!	!LO:TX:t=P:problem=kreska pseudotaktowa	!
2E/	.	.	.	.	.	2c/	-re-	2g/	.
2.F/	.	1A	.	.	.	4d/	.	2f/	.
.	.	.	.	.	.	4c/	.	.	.
.	.	.	.	.	.	2.c/	-re	1a/	.
4E/	.	.	.	.	.	.	.	.	.
=39-	=39-	=39-	=39-	=39-	=39-	=39-	=39-	=39-	=39-
1D	.	1F	.	0ryy	.	.	.	.	.
.	.	.	.	.	.	8Bn/L	.	.	.
.	.	.	.	.	.	8A/J	.	.	.
.	.	.	.	.	.	2B/	.	4g/	.
!	!	!	!	!	!	!	!	!LO:LB:g=original	!
.	.	.	.	.	.	.	.	4ryy	.
!	!	!LO:TX:t=P:problem=kreska pseudotaktowa	!	!	!	!	!	!	!
0.C	.	1G	.	.	.	0.c	no-	4e/	.
.	.	.	.	.	.	.	.	4f/	.
.	.	.	.	.	.	.	.	1g/	.
=40-	=40-	=40-	=40-	=40-	=40-	=40-	=40-	=40-	=40-
.	.	2.A/	.	0ryy	.	.	.	.	.
.	.	.	.	.	.	.	.	1f	.
.	.	8G/L	.	.	.	.	.	.	.
.	.	8F/J	.	.	.	.	.	.	.
.	.	1G	.	.	.	.	.	.	.
.	.	.	.	.	.	.	.	2e/	.
=41-	=41-	=41-	=41-	=41-	=41-	=41-	=41-	=41-	=41-
0F;>	-bis	0A;>	-bis.	0ryy	.	0c;>	-bis	0f;>	-bis.
*	*	*	*	*	*	*	*Xij	*	*
!	!	!LO:LB:g=original	!	!	!	!	!	!	!
=42||	=42||	=42||	=42||	=42||	=42||	=42||	=42||	=42||	=42||
*M2/1	*	*M2/1	*	*M2/1	*	*M2/1	*	*M2/1	*
*met(C|)	*	*met(C|)	*	*met(C|)	*	*met(C|)	*	*met(C|)	*
*k[b-]	*	*	*	*	*	*	*	*	*
!LO:TX:a:t=P:problem=w źródle znaki przykluczowe B- BB-, zapisane jeden pod drugim, w pionie	!	!	!	!	!	!	!	!	!
!LO:TX:t=P:problem=kreska pseudotaktowa	!	!LO:TX:t=P:problem=kreska pseudotaktowa	!	!	!	!	!	!	!
00r	.	00r	.	1f	A-	00r	.	0f	A-
*	*	*	*	*2\right	*	*	*	*	*
.	.	.	.	2d\	-gnus	.	.	.	.
.	.	.	.	2.f\	De-	.	.	.	.
=43-	=43-	=43-	=43-	=43-	=43-	=43-	=43-	=43-	=43-
!	!	!	!	!	!	!	!	!LO:TX:t=P:problem=kreska pseudotaktowa	!
.	.	.	.	.	.	.	.	1a	gnus
.	.	.	.	4e\	.	.	.	.	.
.	.	.	.	4d\	.	.	.	.	.
!	!	!	!	!LO:TX:t=P:problem=kreska pseudotaktowa	!	!	!	!	!
.	.	.	.	4c\	.	.	.	.	.
.	.	.	.	1d	.	.	.	1b-	De-
=44-	=44-	=44-	=44-	=44-	=44-	=44-	=44-	=44-	=44-
!	!	!	!	!	!	!LO:TX:t=P:problem=kreska pseudotaktowa	!	!	!
1F	A-	0F	A-	2c/	-i	00r	.	2cc,\	-i
.	.	.	.	2.f\	A-	.	.	2cc\	qui
2D/	-gnus	.	.	.	.	.	.	2dd\	.
.	.	.	.	4g\	.	.	.	.	.
2.F/	De-	.	.	1a\	.	.	.	2cc\	.
=45-	=45-	=45-	=45-	=45-	=45-	=45-	=45-	=45-	=45-
.	.	1A	-gnus	.	.	.	.	0ff	tol-
4E/	.	.	.	.	.	.	.	.	.
4D/	.	.	.	1f	.	.	.	.	.
!LO:TX:t=P:problem=kreska pseudotaktowa	!	!	!	!	!	!	!	!	!
4C/	.	.	.	.	.	.	.	.	.
1D	.	1B-	De-	.	.	.	.	.	.
.	.	.	.	4e\	-gnus	.	.	.	.
!	!	!	!	!LO:TX:t=P:problem=kreska pseudotaktowa	!	!	!	!	!
.	.	.	.	4d\	.	.	.	.	.
=46-	=46-	=46-	=46-	=46-	=46-	=46-	=46-	=46-	=46-
!	!	!LO:TX:t=P:problem=kreska pseudotaktowa	!	!	!	!	!	!LO:TX:t=P:problem=kreska pseudotaktowa	!
2C,/	-i	1c	-i	1g	De-	0c	A-	0ee	-lis
2c\	A-	.	.	.	.	.	.	.	.
2A\	.	1rg	.	2a\	.	.	.	.	.
2.c\	-gnus	.	.	1g\	.	.	.	.	.
=47-	=47-	=47-	=47-	=47-	=47-	=47-	=47-	=47-	=47-
!	!	!	!	!	!	!	!	!LO:TX:t=P:problem=kreska pseudotaktowa	!
.	.	0c	qui	.	.	1e	-gnus	1rff	.
4B-\	.	.	.	.	.	.	.	.	.
!	!	!	!	!LO:TX:t=P:problem=kreska pseudotaktowa	!	!	!	!	!
4A\	De-	.	.	2c/	-i,	.	.	.	.
!LO:TX:t=P:problem=kreska pseudotaktowa	!	!	!	!	!	!	!	!	!
4G\	.	.	.	.	.	.	.	.	.
!	!	!	!	!LO:LB:g=original	!	!	!	!	!
1A	.	.	.	2r	.	1f	De-	1a	A-
.	.	.	.	2c/	A-	.	.	.	.
=48-	=48-	=48-	=48-	=48-	=48-	=48-	=48-	=48-	=48-
!	!	!	!	!	!	!LO:TX:t=P:problem=kreska pseudotaktowa	!	!	!
2G\	.	0d	tol-	2B-X/	-gn(us)	1g	-i	2b-\	-gnus
2B-\	.	.	.	4G/	De-	.	.	2.dd\	De-
.	.	.	.	4A/	.	.	.	.	.
2G\	.	.	.	4B-/	.	1r	.	.	.
.	.	.	.	4c/	.	.	.	4cc\	.
2.B-\	.	.	.	2d\	.	.	.	4b-\	.
.	.	.	.	.	.	.	.	4a\	.
=49-	=49-	=49-	=49-	=49-	=49-	=49-	=49-	=49-	=49-
!	!	!	!	!LO:TX:t=P:problem=kreska pseudotaktowa	!	!	!	!	!
.	.	1d	-lis	1G	-i,	0g	qui	1.b-	.
4A\	.	.	.	.	.	.	.	.	.
4G\	.	.	.	.	.	.	.	.	.
4F\	.	.	.	.	.	.	.	.	.
*	*	*	*	*	*ij	*	*	*	*
!	!	!LO:TX:t=P:problem=kreska pseudotaktowa	!	!	!	!	!	!	!
1G	.	1e	pec-	1g	A-	.	.	.	.
.	.	.	.	.	.	.	.	2g/	.
=50-	=50-	=50-	=50-	=50-	=50-	=50-	=50-	=50-	=50-
!LO:TX:t=P:problem=kreska pseudotaktowa	!	!	!	!	!	!	!	!LO:TX:t=P:problem=kreska pseudotaktowa	!
1F	-i.	1f	-ca-	2c\	-gn(us)	0a	tol-	1cc	-i
.	.	.	.	2.f\	De-	.	.	.	.
0r	.	2d\	-ta	.	.	.	.	2r	.
.	.	.	.	4g\	.	.	.	.	.
.	.	2.f\	mun-	2.a\	.	.	.	2cc\	Qui
=51-	=51-	=51-	=51-	=51-	=51-	=51-	=51-	=51-	=51-
.	.	.	.	.	.	1a	-lis	1ff	tol-
.	.	4e\	.	4g\	.	.	.	.	.
.	.	4d\	.	4f\	.	.	.	.	.
.	.	4c\	.	4e\	.	.	.	.	.
*	*	*	*	*lig	*	*	*	*	*
!LO:TX:t=P:problem=kreska pseudotaktowa	!	!	!	!	!	!LO:TX:t=P:problem=kreska pseudotaktowa	!	!LO:TX:t=P:problem=kreska pseudotaktowa	!
1r	.	1d	.	1f	.	1b-	pec-	1ff	-lis
=52-	=52-	=52-	=52-	=52-	=52-	=52-	=52-	=52-	=52-
!	!	!LO:TX:t=P:problem=kreska pseudotaktowa	!	!	!	!	!	!	!
1C	Qui	1c	-di	1g	.	1cc	-ca-	1ee	pec-
*	*	*	*	*Xlig	*	*	*	*	*
!	!	!	!	!LO:TX:t=P:problem=kreska pseudotaktowa	!	!	!	!	!
2.F\	tol-	1rg	.	0f	-i,	2a\	.	1ff	ca-
*	*	*	*	*	*Xij	*	*	*	*
.	.	.	.	.	.	2.cc\	-ta	.	.
4G\	.	.	.	.	.	.	.	.	.
=53-	=53-	=53-	=53-	=53-	=53-	=53-	=53-	=53-	=53-
2.A\	.	0F	a-	.	.	.	.	2cc\	-ta
.	.	.	.	.	.	4b-\	.	.	.
.	.	.	.	.	.	4a\	.	1ff	.
4B-\	.	.	.	.	.	4g\	.	.	.
1c	.	.	.	2r	.	1a	mun-	.	.
.	.	.	.	2c\	qui	.	.	4ee\	.
!	!	!	!	!	!	!	!	!LO:TX:t=P:problem=kreska pseudotaktowa	!
.	.	.	.	.	.	.	.	4dd\	.
=54-	=54-	=54-	=54-	=54-	=54-	=54-	=54-	=54-	=54-
!	!	!	!	!	!	!LO:TX:t=P:problem=kreska pseudotaktowa	!	!	!
2C,/	-lis	0G	-gn(us)	1c	tol-	1g	-di	2ee\	mun-
!LO:TX:t=P:problem=kreska pseudotaktowa	!	!	!	!	!	!	!	!	!
2C/	pec-	.	.	.	.	.	.	1cc	.
!	!	!	!	!LO:TX:t=P:problem=kreska pseudotaktowa	!	!	!	!	!
1G	-ca-	.	.	1d	-lis	1rb	.	.	.
.	.	.	.	.	.	.	.	2b-\	.
=55-	=55-	=55-	=55-	=55-	=55-	=55-	=55-	=55-	=55-
!	!	!	!	!	!	!	!	!LO:TX:t=P:problem=kreska pseudotaktowa	!
1C	-ta	1G	De-	1e	pec-	0c	Qui	1cc	-di
1F	mun-	1A	-i	1f	-ca-	.	.	1rff	.
!	!	!	!	!	!	!	!	!LO:LB:g=original	!
=56-	=56-	=56-	=56-	=56-	=56-	=56-	=56-	=56-	=56-
!LO:TX:t=P:problem=kreska pseudotaktowa	!	!LO:TX:t=P:problem=kreska pseudotaktowa	!	!	!	!	!	!	!
1BB-	-di	1B-	qui	2d\	-ta	0d	tol-	1f	Qui
.	.	.	.	2.B-/	.	.	.	.	.
0r	.	2G/	tol-	.	.	.	.	0g	tol-
.	.	.	.	4A/	.	.	.	.	.
.	.	2.B-/	-lis	4G/	mun-	.	.	.	.
.	.	.	.	4F/	.	.	.	.	.
=57-	=57-	=57-	=57-	=57-	=57-	=57-	=57-	=57-	=57-
!	!	!	!	!	!	!LO:TX:t=P:problem=kreska pseudotaktowa	!	!	!
.	.	.	.	1G	.	1d	-lis	.	.
.	.	4A/	.	.	.	.	.	.	.
.	.	4G/	pec-	.	.	.	.	.	.
.	.	4F/	.	.	.	.	.	.	.
!	!	!	!	!	!	!	!	!LO:TX:t=P:problem=kreska pseudotaktowa	!
1C	qui	1G	-ca-	0c	-di	1e	pec-	1g	-lis
=58-	=58-	=58-	=58-	=58-	=58-	=58-	=58-	=58-	=58-
1F	tol-	2F/	-ta	.	.	1f	-ca-	1a	pec-
.	.	2.f\	.	.	.	.	.	.	.
!LO:TX:t=P:problem=kreska pseudotaktowa	!	!	!	!LO:TX:t=P:problem=kreska pseudotaktowa	!	!	!	!LO:TX:t=P:problem=kreska pseudotaktowa	!
1BB-	-lis	.	.	1B-	.	2d/	-ta	1b-	-ca-
.	.	4e\	mun-	.	.	.	.	.	.
!	!	!LO:TX:t=P:problem=kreska pseudotaktowa	!	!	!	!	!	!	!
.	.	[>2d\	.	.	.	2.f\	.	.	.
=59-	=59-	=59-	=59-	=59-	=59-	=59-	=59-	=59-	=59-
!LO:TX:t=P:problem=kreska pseudotaktowa	!	!	!	!	!	!	!	!	!
!	!	!LO:N:xstem:cue	!	!	!	!	!	!	!
0r	.	4d]	.	0r	.	.	.	2a/	.
.	.	4c/	.	.	.	4e/	.	.	.
.	.	4B-/	.	.	.	4d/	.	2.b-/	-ta
.	.	4A/	.	.	.	4c/	.	.	.
.	.	4G/	.	.	.	1d	.	.	.
.	.	4F/	.	.	.	.	.	4a/	.
.	.	1f\	.	.	.	.	.	4g/	mun-
.	.	.	.	.	.	.	.	4f/	.
*custos:C	*	*	*	*	*	*	*	*	*
!LO:LB:g=original	!	!	!	!	!	!	!	!	!
=60-	=60-	=60-	=60-	=60-	=60-	=60-	=60-	=60-	=60-
!	!	!	!	!LO:TX:t=P:problem=kreska pseudotaktowa	!	!	!	!	!
1C	pec-	.	.	1r	.	2c/	.	1g	.
!	!	!LO:TX:t=P:problem=kreska pseudotaktowa	!	!	!	!	!	!	!
.	.	2e\	.	.	.	2.cc\	.	.	.
!	!	!LO:TX:t=P:problem=kreska pseudotaktowa	!	!	!	!	!	!	!
2.F\	-ca-	1f	di,	1c	qui	.	.	2f,/	-di
.	.	.	.	.	.	4b-\	.	.	.
!	!	!	!	!	!	!LO:TX:t=P:problem=kreska pseudotaktowa	!	!	!
.	.	.	.	.	.	[>2a\	.	2.ff\	Do-
4G\	.	.	.	.	.	.	.	.	.
=61-	=61-	=61-	=61-	=61-	=61-	=61-	=61-	=61-	=61-
!	!	!	!	!	!	!LO:N:xstem:cue	!	!	!
!	!	!LO:TX:t=P:problem=kreska pseudotaktowa	!	!	!	!	!	!	!
2A\	.	00r	.	1f	tol-	4a]	.	.	.
.	.	.	.	.	.	4g\	.	4ee\	.
2.B-\	.	.	.	.	.	4f\	.	4dd\	.
!	!	!	!	!	!	!	!	!LO:TX:t=P:problem=kreska pseudotaktowa	!
.	.	.	.	.	.	4e\	.	4cc\	.
.	.	.	.	2f\	-lis	4d/	.	4b-\	.
4A\	-ta	.	.	.	.	4c/	.	4cc\	.
2F\	.	.	.	2f\	pec-	1cc\	mun-	2a/	.
=62-	=62-	=62-	=62-	=62-	=62-	=62-	=62-	=62-	=62-
!	!	!	!	!	!	!	!	!LO:TX:t=P:problem=kreska pseudotaktowa	!
1G	mun-	.	.	1d	.	.	.	1g	-na
.	.	.	.	.	.	2b-\	.	.	.
!LO:TX:t=P:problem=kreska pseudotaktowa	!	!	!	!	!	!LO:TX:t=P:problem=kreska pseudotaktowa	!	!	!
1C	-di	.	.	2.e\	-ca-	1cc	-di	1g	do-
.	.	.	.	4f\	-ta	.	.	.	.
*	*	*custos:c	*	*	*	*	*	*	*
!	!	!LO:TX:b:i:t=Vertat	!	!	!	!	!	!	!
!	!	!LO:PB:g=original	!	!	!	!	!	!	!
=63-	=63-	=63-	=63-	=63-	=63-	=63-	=63-	=63-	=63-
!	!	!	!	!	!	!LO:TX:t=P:problem=kreska pseudotaktowa	!	!	!
2r	.	0c	Do-	2g\	.	00r	.	2e/	-na
1F	do-	.	.	1a	mun-	.	.	4f/	.
!	!	!	!	!	!	!	!	!LO:TX:t=P:problem=kreska pseudotaktowa	!
.	.	.	.	.	.	.	.	4g/	.
.	.	.	.	.	.	.	.	4a/	no-
.	.	.	.	.	.	.	.	4b-/	.
!	!	!	!	!LO:TX:t=P:problem=kreska pseudotaktowa	!	!	!	!	!
2E/	-na	.	.	2g\	-di	.	.	2.cc\	.
!	!	!	!	!LO:LB:g=original	!	!	!	!	!
=64-	=64-	=64-	=64-	=64-	=64-	=64-	=64-	=64-	=64-
2F/	no-	1A	-na	2rf	.	.	.	.	.
.	.	.	.	.	.	.	.	4dd\	.
!	!	!	!	!	!	!	!	!LO:TX:t=P:problem=kreska pseudotaktowa	!
2C/	-bis	.	.	1c	Do-	.	.	2ee\	.
1D	pa-	1F	no-	.	.	.	.	1ff	.
.	.	.	.	2B-/	-na	.	.	.	.
=65-	=65-	=65-	=65-	=65-	=65-	=65-	=65-	=65-	=65-
!LO:TX:t=P:problem=kreska pseudotaktowa	!	!	!	!	!	!	!	!	!
1C	-cem	0G	-bis	2c\	no-	0g	Do-	2ee\	-bis
*	*	*	*	*	*	*	*	*	*ij
.	.	.	.	2c\	-bis	.	.	1cc	do-
!LO:N:vis=0	!	!	!	!	!	!	!	!	!
1r	.	.	.	1d	pa-	.	.	.	.
!	!	!	!	!	!	!	!	!LO:TX:t=P:problem=kreska pseudotaktowa	!
.	.	.	.	.	.	.	.	2b-\	-na
=66-	=66-	=66-	=66-	=66-	=66-	=66-	=66-	=66-	=66-
!LO:TX:t=P:problem=kreska pseudotaktowa	!	!	!	!LO:TX:t=P:problem=kreska pseudotaktowa	!	!	!	!	!
!LO:N:vis=1	!	!	!	!	!	!	!	!	!
0r	.	2.A/	pa-	1c	-cem	1e	-na	2cc\	no-
.	.	.	.	.	.	.	.	2cc\	-bis
*	*	*	*	*	*	*	*	*	*Xij
.	.	4G/	.	.	.	.	.	.	.
*	*	*	*	*	*	*custos:d	*	*	*
!	!	!	!	!	!	!LO:TX:t=P:problem=kreska pseudotaktowa	!	!	!
.	.	4A/	.	0rf	.	1c	no-	1a	pa-
.	.	4B-/	.	.	.	.	.	.	.
.	.	1c\	.	.	.	.	.	.	.
!	!	!	!	!	!	!LO:LB:g=original	!	!	!
=67-	=67-	=67-	=67-	=67-	=67-	=67-	=67-	=67-	=67-
*	*ij	*	*	*	*	*	*	*	*
!	!	!	!	!	!	!	!	!LO:TX:t=P:problem=kreska pseudotaktowa	!
0G	do-	.	.	.	.	0d	-bis	0g	-cem
.	.	4B-/	.	.	.	.	.	.	.
!	!	!LO:TX:t=P:problem=kreska pseudotaktowa	!	!	!	!	!	!	!
.	.	4A/	.	.	.	.	.	.	.
*	*	*	*	*	*ij	*	*	*	*
.	.	1B-	.	0g	Do-	.	.	.	.
=68-	=68-	=68-	=68-	=68-	=68-	=68-	=68-	=68-	=68-
!	!	!LO:TX:t=P:problem=kreska pseudotaktowa	!	!	!	!	!	!	!
1C	-na	0c	-cem	.	.	2.e/	pa-	2rg	.
.	.	.	.	.	.	.	.	1g	do-
.	.	.	.	.	.	4d/	.	.	.
2.c\	no-	.	.	1e	-na	4e\	.	.	.
.	.	.	.	.	.	4f\	.	.	.
!	!	!	!	!	!	!	!	!LO:TX:t=P:problem=kreska pseudotaktowa	!
.	.	.	.	.	.	1g\	.	2g/	-na
4B-\	-bis	.	.	.	.	.	.	.	.
=69-	=69-	=69-	=69-	=69-	=69-	=69-	=69-	=69-	=69-
0A	pa-	00r	.	0c	no-	.	.	2.a/	.
.	.	.	.	.	.	4f\	.	.	.
.	.	.	.	.	.	4e\	.	4g/	no-
.	.	.	.	.	.	1f	.	4a/	.
.	.	.	.	.	.	.	.	4b-/	.
.	.	.	.	.	.	.	.	1cc\	.
=70-	=70-	=70-	=70-	=70-	=70-	=70-	=70-	=70-	=70-
!LO:TX:t=P:problem=kreska pseudotaktowa	!	!	!	!	!	!LO:TX:t=P:problem=kreska pseudotaktowa	!	!	!
0G	-cem	.	.	1.d	-bis	0g	-cem	.	.
*	*Xij	*	*	*	*	*	*	*	*
.	.	.	.	.	.	.	.	4b-\	.
.	.	.	.	.	.	.	.	4a\	.
.	.	.	.	.	.	.	.	1b-	.
.	.	.	.	2G/	pa-	.	.	.	.
!	!	!	!	!	!	!	!	!LO:LB:g=original	!
=71-	=71-	=71-	=71-	=71-	=71-	=71-	=71-	=71-	=71-
2r	.	0f	Do-	2A/	.	00r	.	2cc,\	-bis
*	*ij	*	*	*	*	*	*	*	*
1B-	do-	.	.	2B-/	.	.	.	1dd	pa-
!	!	!	!	!LO:TX:t=P:problem=kreska pseudotaktowa	!	!	!	!	!
.	.	.	.	1F	-cem	.	.	.	.
*	*	*	*	*	*Xij	*	*	*	*
!	!	!	!	!	!	!	!	!LO:TX:t=P:problem=kreska pseudotaktowa	!
2A\	-na	.	.	.	.	.	.	2cc\	.
=72-	=72-	=72-	=72-	=72-	=72-	=72-	=72-	=72-	=72-
2B-\	no-	1d	-na	2r	.	.	.	2b-/	.
2F\	-bis	.	.	1f	do-	.	.	2a/	.
1G	pa-	1B-	no-	.	.	.	.	2.b-/	.
.	.	.	.	2e\	-na	.	.	.	.
.	.	.	.	.	.	.	.	8a/L	.
.	.	.	.	.	.	.	.	8g/J	.
=73-	=73-	=73-	=73-	=73-	=73-	=73-	=73-	=73-	=73-
*	*	*	*	*	*	*	*ij	*	*
!LO:TX:t=P:problem=kreska pseudotaktowa	!	!	!	!	!	!	!	!	!
1F	-cem	2c\	-bis	1f	no-	0cc	Do-	1a	.
*	*Xij	*	*	*	*	*	*	*	*
.	.	1f	.	.	.	.	.	.	.
!	!	!	!	!LO:TX:t=P:problem=kreska pseudotaktowa	!	!	!	!LO:TX:t=P:problem=kreska pseudotaktowa	!
00r	.	.	.	1c	-bis	.	.	1g	-cem
!	!	!LO:TX:t=P:problem=kreska pseudotaktowa	!	!	!	!	!	!	!
.	.	2e\	pa-	.	.	.	.	.	.
=74-	=74-	=74-	=74-	=74-	=74-	=74-	=74-	=74-	=74-
.	.	2f\	.	2d\	pa-	1a	-na	2r	.
.	.	2c\	.	2A/	-cem	.	.	1cc	do-
.	.	1d	.	2r	.	1f	no-	.	.
*	*	*	*	*	*ij	*	*	*	*
!	!	!	!	!	!	!	!	!LO:TX:t=P:problem=kreska pseudotaktowa	!
.	.	.	.	1f\	do-	.	.	2b-\	-na
=75-	=75-	=75-	=75-	=75-	=75-	=75-	=75-	=75-	=75-
!	!	!LO:TX:t=P:problem=kreska pseudotaktowa	!	!	!	!	!	!	!
.	.	1c	-cem	.	.	2g\	-bis	1cc	no-
.	.	.	.	2e\	-na	1cc	pa-	.	.
!LO:TX:t=P:problem=kreska pseudotaktowa	!	!	!	!	!	!	!	!	!
0r	.	00r	.	2f\	no-	.	.	2a,/	.
!	!	!	!	!LO:TX:t=P:problem=kreska pseudotaktowa	!	!LO:TX:t=P:problem=kreska pseudotaktowa	!	!	!
.	.	.	.	2d\	-bis	2b-\	.	1ff\	-bis
=76-	=76-	=76-	=76-	=76-	=76-	=76-	=76-	=76-	=76-
.	.	.	.	2.c/	pa-	2cc\	.	.	.
!	!	!	!	!	!	!	!	!LO:TX:t=P:problem=kreska pseudotaktowa	!
.	.	.	.	.	.	2g\	.	2ee\	pa-
.	.	.	.	4B-/	.	.	.	.	.
1F	do-	.	.	4A/	.	1a	.	2ff\	.
.	.	.	.	4F/	.	.	.	.	.
.	.	.	.	1f\	.	.	.	2cc\	.
=77-	=77-	=77-	=77-	=77-	=77-	=77-	=77-	=77-	=77-
!	!	!	!	!	!	!LO:TX:t=P:problem=kreska pseudotaktowa	!	!	!
2BB-/	-na	.	.	.	.	1g	-cem	2dd\	.
*	*	*	*	*	*	*	*Xij	*	*
2C/	.	.	.	2e\	.	.	.	4cc\	.
!	!	!	!	!	!	!	!	!LO:TX:t=P:problem=kreska pseudotaktowa	!
.	.	.	.	.	.	.	.	4b-\	.
!	!	!	!	!LO:TX:t=P:problem=kreska pseudotaktowa	!	!	!	!	!
2D/	.	2rB	.	0f	-cem	00r	.	2a/	.
*	*	*	*	*	*Xij	*	*	*	*
*	*	*	*ij	*	*	*	*	*	*
4BB-/	no-	1B-/	Do-	.	.	.	.	1dd\	.
4C/	.	.	.	.	.	.	.	.	.
=78-	=78-	=78-	=78-	=78-	=78-	=78-	=78-	=78-	=78-
4D/	.	.	.	.	.	.	.	.	.
4E/	.	.	.	.	.	.	.	.	.
!	!	!	!	!	!	!	!	!LO:TX:t=P:problem=kreska pseudotaktowa	!
2F/	.	2A/	-na	.	.	.	.	2cc\	.
2BB-/	-bis	2B-/	no-	2rf	.	.	.	2dd\	.
2D/	pa-	2F/	-bis	1f\	do-	.	.	2a/	.
=79-	=79-	=79-	=79-	=79-	=79-	=79-	=79-	=79-	=79-
!LO:TX:t=P:problem=kreska pseudotaktowa	!	!	!	!	!	!	!	!	!
1C	-cem	1G	pa-	.	.	.	.	2.cc\	.
.	.	.	.	2e\	-na	.	.	.	.
.	.	.	.	.	.	.	.	4b-/	.
*	*	*	*	*	*	*	*	*lig	*
!LO:TX:t=P:problem=kreska pseudotaktowa	!	!LO:TX:t=P:problem=kreska pseudotaktowa	!	!	!	!	!	!	!
0r	.	1F	-cem	1f	no-	2r	.	1a	.
.	.	.	.	.	.	1f\	do-	.	.
=80-	=80-	=80-	=80-	=80-	=80-	=80-	=80-	=80-	=80-
!	!	!	!	!LO:TX:t=P:problem=kreska pseudotaktowa	!	!	!	!LO:TX:t=P:problem=kreska pseudotaktowa	!
.	.	00r	.	0c	-bis	.	.	1g	.
.	.	.	.	.	.	2e\	-na	.	.
*	*	*	*	*	*	*	*	*Xlig	*
1.F	do-	.	.	.	.	2f\	no-	2a,/	-cem
.	.	.	.	.	.	2c/	-bis	1cc\	.
=81-	=81-	=81-	=81-	=81-	=81-	=81-	=81-	=81-	=81-
.	.	.	.	2rf	.	1d	pa-	.	.
*	*	*	*	*	*ij	*	*	*	*
!	!	!	!	!	!	!	!	!LO:TX:t=P:problem=kreska pseudotaktowa	!
2G\	-na	.	.	1g	do-	.	.	2b-\	pa-
!	!	!	!	!	!	!LO:TX:t=P:problem=kreska pseudotaktowa	!	!	!
2E/	no-	.	.	.	.	1c	-cem	1cc	.
!LO:TX:t=P:problem=kreska pseudotaktowa	!	!	!	!	!	!	!	!	!
2F/	-bis	.	.	2a\	-na	.	.	.	.
!LO:LB:g=original	!	!	!	!	!	!	!	!	!
=82-	=82-	=82-	=82-	=82-	=82-	=82-	=82-	=82-	=82-
4F/	pa-	1.F	Do-	1f	no-	00r	.	2a/	.
4E/	.	.	.	.	.	.	.	.	.
4D/	.	.	.	.	.	.	.	2.dd\	.
4C/	.	.	.	.	.	.	.	.	.
1BB-	.	.	.	2d\	-bis	.	.	.	.
.	.	.	.	.	.	.	.	4cc\	.
.	.	2G/	-na	2.d\	pa-	.	.	4b-\	.
!	!	!	!	!	!	!	!	!LO:TX:t=P:problem=kreska pseudotaktowa	!
.	.	.	.	.	.	.	.	4a\	.
=83-	=83-	=83-	=83-	=83-	=83-	=83-	=83-	=83-	=83-
2C/	.	2E/	no-	.	.	.	.	2g/	.
.	.	.	.	2c/	.	.	.	.	.
2D/	.	2F/	-bis	.	.	.	.	1f	.
.	.	.	.	4B-/	.	.	.	.	.
!LO:TX:t=P:problem=kreska pseudotaktowa	!	!	!	!LO:TX:t=P:problem=kreska pseudotaktowa	!	!	!	!	!
1C	-cem	1G	pa-	1c	-cem	.	.	.	.
.	.	.	.	.	.	.	.	2e/	.
=84-	=84-	=84-	=84-	=84-	=84-	=84-	=84-	=84-	=84-
*	*	*	*	*	*	*	*ij	*	*
2rD	.	000F;>	-cem	2.A/	do-	1.c	do-	000f;>	-cem.
*	*	*	*Xij	*	*	*	*	*	*
*	*ij	*	*	*	*	*	*	*	*
2F\	do-	.	.	.	.	.	.	.	.
.	.	.	.	4B-/	-na	.	.	.	.
2F\	-na	.	.	2c/	no-	.	.	.	.
1BB-/	no-	.	.	2B-/	-bis	2d/	-na	.	.
=85-	=85-	=85-	=85-	=85-	=85-	=85-	=85-	=85-	=85-
.	.	.	.	2d\	pa-	2B-/	no-	.	.
2AA/	-bis	.	.	2c\	.	2c/	-bis	.	.
0BB-	pa-	.	.	1B-	.	1d	pa-	.	.
=86-	=86-	=86-	=86-	=86-	=86-	=86-	=86-	=86-	=86-
.	.	.	.	00A;>	-cem	00c;>	-cem	.	.
*	*	*	*	*	*Xij	*	*Xij	*	*
0.F;>	-cem	.	.	.	.	.	.	.	.
*	*Xij	*	*	*	*	*	*	*	*
=87-	=87-	=87-	=87-	=87-	=87-	=87-	=87-	=87-	=87-
.	.	.	.	.	.	.	.	.	.
==	==	==	==	==	==	==	==	==	==
*-	*-	*-	*-	*-	*-	*-	*-	*-	*-
!!!system-decoration: [(s1,s2,s3,s4,s5)]
!!!RDF**kern: > = above
!!!RDF**kern: < = below
!!!EED: Antoni Szymański
!!!EST: 2021-03-16
!!!ENC: Tomasz Grochalski
!!!END: 2021-03-02
